X: 429
%
T: Miss Stewart Grantully
C:Neil Gow
O:Scotland
B:Keith Norman MacDonald : "The Skye collection of the best reels & strathspeys extant" : 1887
Z:Ralph Palmer
R:Reel
M:C
L:1/8
K:A
e | AA{/d}cA ec{/d}cA | =GGBG dGB=g | AA{/d}cA eA{/d}cA | Ea ef {/d}cAA :|
B | Aaga eaca | B=gdg B=GGB | Aaga eaca | faef {/d}cAAB |
Aaga eaca | B=gdg B=GGB | AA{/d}cA {/c}dB{/d}cA | Ea ef {/d}cAA |]


